img/odnoklassniki.svg

<svg width="12" height="20" viewBox="0 0 12 20" fill="none" xmlns="http://www.w3.org/2000/svg">
<path d="M6.0182 3.01823C7.24121 3.01823 8.23248 3.97585 8.23248 5.15736C8.23248 6.33886 7.24121 7.29649 6.0182 7.29649C4.79519 7.29649 3.80392 6.33886 3.80392 5.15736C3.80392 3.97585 4.79579 3.01823 6.0182 3.01823ZM6.0182 10.3147C8.96653 10.3147 11.3567 7.99976 11.3567 5.15736C11.3567 2.31495 8.96046 0 6.0182 0C3.07594 0 0.67966 2.31495 0.67966 5.15736C0.67966 7.99976 3.07594 10.3147 6.0182 10.3147ZM8.17788 14.5285C9.2735 14.2888 10.3194 13.8733 11.2718 13.2978C12.0022 12.8512 12.2194 11.917 11.7571 11.2114C11.2949 10.5058 10.3279 10.296 9.59745 10.7425C7.39651 12.0711 4.60349 12.0711 2.40255 10.7425C1.67214 10.296 0.70514 10.5058 0.242871 11.2114C-0.219398 11.917 -0.00221688 12.8512 0.728192 13.2978C1.69277 13.8838 2.73014 14.2941 3.82212 14.5285L0.849523 17.4178C0.238017 18.0086 0.238017 18.9662 0.849523 19.5569C1.46103 20.1477 2.4523 20.1477 3.0638 19.5569L6 16.7145L8.9362 19.5511C9.5471 20.1418 10.5384 20.1424 11.1499 19.5517L11.1505 19.5511C11.762 18.9609 11.7626 18.0033 11.1511 17.4125L11.1505 17.4119L8.15968 14.5227" fill="white"/>
</svg>

<svg width="12" height="20" fill="none" xmlns="http://www.w3.org/2000/svg"><path d="M6.018 3.018c1.223 0 2.214.958 2.214 2.14 0 1.18-.99 2.138-2.214 2.138-1.223 0-2.214-.957-2.214-2.139 0-1.181.992-2.139 2.214-2.139Zm0 7.297c2.949 0 5.339-2.315 5.339-5.158C11.357 2.315 8.96 0 6.018 0 3.076 0 .68 2.315.68 5.157c0 2.843 2.396 5.158 5.338 5.158Zm2.16 4.213a10.195 10.195 0 0 0 3.094-1.23c.73-.447.947-1.381.485-2.087-.462-.705-1.43-.915-2.16-.469a6.992 6.992 0 0 1-7.194 0c-.73-.446-1.698-.236-2.16.47a1.482 1.482 0 0 0 .485 2.086 9.957 9.957 0 0 0 3.094 1.23L.85 17.418a1.476 1.476 0 0 0 0 2.139c.611.59 1.602.59 2.214 0L6 16.715l2.936 2.836c.611.59 1.602.591 2.214 0a1.476 1.476 0 0 0 .001-2.138v-.001l-2.991-2.89" fill="#fff"/></svg>
